data/icon-11.svg

<svg xmlns="http://www.w3.org/2000/svg" viewBox="0 0 800 800"><defs><style>.cls-1{fill:#8b9299;}.cls-2{fill:#fff;}</style></defs><title>icon</title><g id="_1._GlayWorld" data-name="1. GlayWorld"><rect class="cls-1" x="-43.863" y="-30.774" width="876.088" height="876.088"/></g><g id="_11._SilverWorld_third_winter_remaster_" data-name="11. SilverWorld &lt;third winter remaster&gt;"><path class="cls-2" d="M399.782,145.878a253.238,253.238,0,1,1-98.907,19.959,252.506,252.506,0,0,1,98.907-19.959m0-28.275c-155.963,0-282.4,126.433-282.4,282.4s126.434,282.4,282.4,282.4,282.4-126.433,282.4-282.4-126.433-282.4-282.4-282.4Z"/><path class="cls-2" d="M342.012,520.054c-50.412,5.124-85.616,16.759-85.616,30.3,0,18.272,64.141,33.085,143.262,33.085s143.262-14.813,143.262-33.085c0-13.518-35.108-25.14-85.411-30.274L399.782,549Z"/><path class="cls-2" d="M565.406,300,399.782,217,234.157,300V466l107.855,54.05a596.817,596.817,0,0,1,115.5.021L565.406,466Z"/></g></svg>

<svg version="1.1" id="レイヤー_1" xmlns="http://www.w3.org/2000/svg" xmlns:xlink="http://www.w3.org/1999/xlink" x="0px"
	 y="0px" viewBox="0 0 800 800" style="enable-background:new 0 0 800 800; fill:#FFFFFF;" xml:space="preserve">
<title>icon</title>
<g id="_11._SilverWorld_third_winter_remaster_">
	<path class="st0" d="M399.8,145.9c139.9,0.2,253.1,113.7,252.9,253.6c-0.2,139.9-113.7,253.1-253.6,252.9
		C259.2,652.2,146,538.6,146.2,398.8c0.1-101.6,61.1-193.4,154.7-232.9C332.2,152.6,365.8,145.8,399.8,145.9 M399.8,117.6
		c-156,0-282.4,126.4-282.4,282.4s126.4,282.4,282.4,282.4S682.2,556,682.2,400S555.7,117.6,399.8,117.6L399.8,117.6z"/>
	<path class="st0" d="M342,520.1c-50.4,5.1-85.6,16.8-85.6,30.3c0,18.3,64.1,33.1,143.3,33.1s143.3-14.8,143.3-33.1
		c0-13.5-35.1-25.1-85.4-30.3L399.8,549L342,520.1z"/>
	<path class="st0" d="M565.4,300l-165.6-83l-165.6,83v166L342,520c38.4-3.7,77.1-3.7,115.5,0L565.4,466V300z"/>
</g>
</svg>
